app/images/icons/cart-icon.svg

<svg width="21" height="20" viewBox="0 0 21 20" fill="none" xmlns="http://www.w3.org/2000/svg">
<path d="M1 1.17578L3.08 1.5316L4.04301 12.8715C4.12001 13.7976 4.90301 14.5082 5.84301 14.5053H16.752C17.649 14.5072 18.41 13.8549 18.537 12.9772L19.486 6.49532C19.592 5.77083 19.083 5.09872 18.351 4.99395C18.287 4.98505 3.414 4.98011 3.414 4.98011" stroke="#363853" stroke-width="1.5" stroke-linecap="round" stroke-linejoin="round"/>
<path d="M12.375 8.63337H15.1479" stroke="#363853" stroke-width="1.5" stroke-linecap="round" stroke-linejoin="round"/>
<path fill-rule="evenodd" clip-rule="evenodd" d="M5.4043 17.9316C5.70527 17.9316 5.94824 18.1729 5.94824 18.4696C5.94824 18.7673 5.70527 19.0085 5.4043 19.0085C5.10333 19.0085 4.86035 18.7673 4.86035 18.4696C4.86035 18.1729 5.10333 17.9316 5.4043 17.9316Z" stroke="#363853" stroke-width="1.5" stroke-linecap="round" stroke-linejoin="round"/>
<path fill-rule="evenodd" clip-rule="evenodd" d="M16.6846 17.9316C16.9856 17.9316 17.2296 18.1729 17.2296 18.4696C17.2296 18.7673 16.9856 19.0085 16.6846 19.0085C16.3836 19.0085 16.1406 18.7673 16.1406 18.4696C16.1406 18.1729 16.3836 17.9316 16.6846 17.9316Z" stroke="#363853" stroke-width="1.5" stroke-linecap="round" stroke-linejoin="round"/>
</svg>

<svg xmlns="http://www.w3.org/2000/svg" width="21" height="20" fill="none"><path stroke-linecap="round" stroke-linejoin="round" stroke-width="1.5" d="m1 1.176 2.08.356.963 11.34c.077.926.86 1.636 1.8 1.633h10.909a1.794 1.794 0 0 0 1.785-1.528l.949-6.482a1.328 1.328 0 0 0-1.135-1.501c-.064-.009-14.937-.014-14.937-.014M12.375 8.633h2.773"/><path stroke-linecap="round" stroke-linejoin="round" stroke-width="1.5" d="M5.404 17.932a.54.54 0 0 1 .544.538.541.541 0 0 1-.544.539.541.541 0 0 1-.544-.54.54.54 0 0 1 .544-.537ZM16.685 17.932c.3 0 .545.24.545.538a.542.542 0 0 1-.545.539.541.541 0 0 1-.544-.54.54.54 0 0 1 .544-.537Z"/></svg>
